X: 1201
M: 2/4
L: 1/8
K: D
f |\
a>f d<f | e>c Af | a>f ga | b2 g<b |\
a<f g<e | f<d e<a | A>A Bc | "^da Capo"d3 |]

